www/assets/icons/add_location_alt.svg

<svg xmlns="http://www.w3.org/2000/svg" width="24" height="24" viewBox="0 0 24 24" fill='currentColor'><path d="M18.5 1v3h3v2h-3v3h-2V6h-3V4h3V1zm-8 12c1.1 0 2-.9 2-2s-.9-2-2-2-2 .9-2 2 .9 2 2 2m2-9.75V7h3v3h2.92c.05.39.08.79.08 1.2 0 3.32-2.67 7.25-8 11.8-5.33-4.55-8-8.48-8-11.8 0-4.98 3.8-8.2 8-8.2.68 0 1.35.08 2 .25"/></svg>

<svg width="24" height="24" viewBox="0 0 24 24" xmlns="http://www.w3.org/2000/svg" fill='currentColor'><path d="M18.5 1V4H21.5V6H18.5V9H16.5V6H13.5V4H16.5V1H18.5ZM10.5 13C11.6 13 12.5 12.1 12.5 11C12.5 9.9 11.6 9 10.5 9C9.4 9 8.5 9.9 8.5 11C8.5 12.1 9.4 13 10.5 13ZM12.5 3.25V7H15.5V10H18.42C18.47 10.39 18.5 10.79 18.5 11.2C18.5 14.52 15.83 18.45 10.5 23C5.17 18.45 2.5 14.52 2.5 11.2C2.5 6.22 6.3 3 10.5 3C11.18 3 11.85 3.08 12.5 3.25Z"/></svg>
